icon/button-up.svg

<?xml version="1.0" encoding="UTF-8"?>
<svg id="Layer_1" xmlns="http://www.w3.org/2000/svg" width="16" height="17" version="1.1" viewBox="0 0 16 17">
  <!-- Generator: Adobe Illustrator 29.6.1, SVG Export Plug-In . SVG Version: 2.1.1 Build 9)  -->
  <path d="M15,0H0v16h1V1h14V0Z" fill="#525252" fill-rule="evenodd"/>
  <path d="M2,1h-1v14h1V2h12v-1H2Z" fill="#363636" fill-rule="evenodd"/>
  <path d="M16,17H0v-1h15V0h1v17Z" fill-rule="evenodd"/>
  <path d="M15,1h-1v14H1v1h14V1Z" fill="#191919" fill-rule="evenodd"/>
  <path d="M2,2h12v13H2V2Z" fill="#2b2b2b"/>
  <path d="M8,6h-1v1h-1v1h-1v1h-1v1h7v-1h-1v-1h-1v-1h-1v-1Z" fill="#fff" fill-rule="evenodd"/>
</svg>

<svg xmlns="http://www.w3.org/2000/svg" width="16" height="17" fill="none"><path fill="#DFDFDF" fill-rule="evenodd" d="M15 0H0v16h1V1h14z" clip-rule="evenodd"/><path fill="#fff" fill-rule="evenodd" d="M2 1H1v14h1V2h12V1z" clip-rule="evenodd"/><path fill="#000" fill-rule="evenodd" d="M16 17H0v-1h15V0h1z" clip-rule="evenodd"/><path fill="gray" fill-rule="evenodd" d="M15 1h-1v14H1v1h14z" clip-rule="evenodd"/><path fill="silver" d="M2 2h12v13H2z"/><path fill="#000" fill-rule="evenodd" d="M8 6H7v1H6v1H5v1H4v1h7V9h-1V8H9V7H8z" clip-rule="evenodd"/></svg>
